img/contract-image.svg

<svg xmlns="http://www.w3.org/2000/svg" width="2.858cm" height="3.528cm">
  <path fill="#F39D77" fill-rule="evenodd" d="M80.152 75.705L57.01 99.141a2.886 2.886 0 0 1-2.046.859H2.892C1.295 100 0 98.688 0 97.07V2.929C0 1.311 1.295 0 2.892 0h75.214C79.704 0 81 1.311 81 2.929v70.704c0 .794-.323 1.54-.848 2.072zM57.857 89.997l13.266-13.435H57.857v13.435zM75.214 5.859H5.786V94.14h46.285V73.633c0-1.618 1.295-2.93 2.893-2.93h20.25V5.859zM46.285 61.914c0-1.618 1.295-2.93 2.893-2.93h17.357c1.598 0 2.893 1.312 2.893 2.93s-1.295 2.93-2.893 2.93H49.178c-1.598 0-2.893-1.312-2.893-2.93zm20.25-8.789H49.178c-1.598 0-2.893-1.312-2.893-2.93s1.295-2.929 2.893-2.929h17.357c1.598 0 2.893 1.311 2.893 2.929 0 1.618-1.295 2.93-2.893 2.93zm0-11.719H14.464c-1.598 0-2.893-1.311-2.893-2.93 0-1.618 1.295-2.929 2.893-2.929h52.071c1.598 0 2.893 1.311 2.893 2.929 0 1.619-1.295 2.93-2.893 2.93zm0-11.719H14.464c-1.598 0-2.893-1.311-2.893-2.929v-12.11c0-1.618 1.295-2.929 2.893-2.929h52.071c1.598 0 2.893 1.311 2.893 2.929v12.11c0 1.618-1.295 2.929-2.893 2.929zm-2.893-12.109H17.357v6.25h46.285v-6.25zM26.035 47.266c7.976 0 14.464 6.571 14.464 14.648 0 4.782-2.274 9.035-5.785 11.711v11.726a2.939 2.939 0 0 1-1.372 2.493 2.862 2.862 0 0 1-2.814.128l-4.493-2.275-4.492 2.275a2.862 2.862 0 0 1-2.814-.128 2.936 2.936 0 0 1-1.372-2.493V73.625a14.698 14.698 0 0 1-5.786-11.711c0-8.077 6.489-14.648 14.464-14.648zm-2.892 33.345l1.599-.81a2.862 2.862 0 0 1 2.587 0l1.599.81v-4.344a14.295 14.295 0 0 1-5.785 0v4.344zm2.892-9.908c4.786 0 8.679-3.943 8.679-8.789s-3.893-8.789-8.679-8.789c-4.785 0-8.678 3.943-8.678 8.789s3.893 8.789 8.678 8.789z"/>
</svg>

<svg
 xmlns="http://www.w3.org/2000/svg"
 xmlns:xlink="http://www.w3.org/1999/xlink"
 width="2.858cm" height="3.528cm">
<path fill-rule="evenodd"  fill="rgb(243, 157, 119)"
 d="M80.152,75.705 L57.010,99.141 C56.473,99.685 55.733,100.000 54.964,100.000 L2.892,100.000 C1.295,100.000 -0.000,98.688 -0.000,97.070 L-0.000,2.929 C-0.000,1.311 1.295,-0.000 2.892,-0.000 L78.106,-0.000 C79.704,-0.000 81.000,1.311 81.000,2.929 L81.000,73.633 C81.000,74.427 80.677,75.173 80.152,75.705 ZM57.857,89.997 L71.123,76.562 L57.857,76.562 L57.857,89.997 ZM75.214,5.859 L5.786,5.859 L5.786,94.140 L52.071,94.140 L52.071,73.633 C52.071,72.015 53.366,70.703 54.964,70.703 L75.214,70.703 L75.214,5.859 ZM46.285,61.914 C46.285,60.296 47.580,58.984 49.178,58.984 L66.535,58.984 C68.133,58.984 69.428,60.296 69.428,61.914 C69.428,63.532 68.133,64.844 66.535,64.844 L49.178,64.844 C47.580,64.844 46.285,63.532 46.285,61.914 ZM66.535,53.125 L49.178,53.125 C47.580,53.125 46.285,51.813 46.285,50.195 C46.285,48.577 47.580,47.266 49.178,47.266 L66.535,47.266 C68.133,47.266 69.428,48.577 69.428,50.195 C69.428,51.813 68.133,53.125 66.535,53.125 ZM66.535,41.406 L14.464,41.406 C12.866,41.406 11.571,40.095 11.571,38.476 C11.571,36.858 12.866,35.547 14.464,35.547 L66.535,35.547 C68.133,35.547 69.428,36.858 69.428,38.476 C69.428,40.095 68.133,41.406 66.535,41.406 ZM66.535,29.687 L14.464,29.687 C12.866,29.687 11.571,28.376 11.571,26.758 L11.571,14.648 C11.571,13.030 12.866,11.719 14.464,11.719 L66.535,11.719 C68.133,11.719 69.428,13.030 69.428,14.648 L69.428,26.758 C69.428,28.376 68.133,29.687 66.535,29.687 ZM63.642,17.578 L17.357,17.578 L17.357,23.828 L63.642,23.828 L63.642,17.578 ZM26.035,47.266 C34.011,47.266 40.499,53.837 40.499,61.914 C40.499,66.696 38.225,70.949 34.714,73.625 L34.714,85.351 C34.714,86.367 34.195,87.310 33.342,87.844 C32.491,88.376 31.425,88.427 30.528,87.972 L26.035,85.697 L21.543,87.972 C20.647,88.426 19.581,88.377 18.729,87.844 C17.875,87.310 17.357,86.367 17.357,85.351 L17.357,73.625 C13.846,70.949 11.571,66.696 11.571,61.914 C11.571,53.837 18.060,47.266 26.035,47.266 ZM23.143,80.611 L24.742,79.801 C25.556,79.389 26.515,79.389 27.329,79.801 L28.928,80.611 L28.928,76.267 C27.993,76.460 27.026,76.562 26.035,76.562 C25.045,76.562 24.077,76.460 23.143,76.267 L23.143,80.611 ZM26.035,70.703 C30.821,70.703 34.714,66.760 34.714,61.914 C34.714,57.068 30.821,53.125 26.035,53.125 C21.250,53.125 17.357,57.068 17.357,61.914 C17.357,66.760 21.250,70.703 26.035,70.703 Z"/>
</svg>
